X: 10
M: 6/4
L: 1/8
P: AA BB ad.lib.
Q: 3/4=80 "lightly"
K: Bb
V: 1
"A"[|]F2 |\
"Bb"BABcB2 cBcdc2 | d6 B4", "f2 |\
d2c2B2 A4B2 | c6- c4", "F2 |\
d6 B4", "d2 |\
c2B2A2 G4F2 | F6- F4 :|\
"B"|: c2 |\
cBcdc2 AGABc2 | F6 f4", "g2 |
f2d2B2 e4f2 | g6- g4", "a2 |\
b2a2b2 f4f2 | gfgag2 c4b2 |\
b2d2e2 c4B2 | B6- B4 :|
V: 2
|: A2 |\
V: 3 clef=bass middle=d
"Bb"B6 "F"f4f2 | "Bb"babc'b2 "Gm"g4"F"a2 | "Bb"b2a2g2 "F"f4"Bb"B2 | "F"F4F2 fefgf2 |
"Bb"d4 "Gm"g2 "F"f4 a2 | "Bb"babc'b2 "Gm"g2a2b2 | "F"a2g2f2 "C"c'4c2 | "F"f4F2 fefg :|
|: f2 |\
"F"F6 f4e2 | "Bb"d6- d4"Eb"e2 | "Bb"d4"Gm"g2 g4"Fm"f2 | "Eb"e4d2 "Cm"c4"F"f2 |
"Eb"g2f2e2 "Bb"d2c2B2 | "Eb"e6 "F"f4"Dm"d2 | "Gm"g4"Eb"e2 "F"f4F2 | "Bb"B6- B4 :|


